svg/fluentui-system-icons/ic_fluent_presence_available_24_filled.svg

<svg width="24" height="24" viewBox="0 0 24 24" fill="none" xmlns="http://www.w3.org/2000/svg">
<path d="M12 24C18.6274 24 24 18.6274 24 12C24 5.37258 18.6274 0 12 0C5.37258 0 0 5.37258 0 12C0 18.6274 5.37258 24 12 24ZM17.0607 10.5607L11.5607 16.0607C10.9749 16.6464 10.0251 16.6464 9.43934 16.0607L7.43934 14.0607C6.85355 13.4749 6.85355 12.5251 7.43934 11.9393C8.02513 11.3536 8.97487 11.3536 9.56066 11.9393L10.5 12.8787L14.9393 8.43934C15.5251 7.85355 16.4749 7.85355 17.0607 8.43934C17.6464 9.02513 17.6464 9.97487 17.0607 10.5607Z" fill="#212121"/>
</svg>

<svg xmlns="http://www.w3.org/2000/svg" width="24" height="24"><path d="M12 24c6.627 0 12-5.373 12-12S18.627 0 12 0 0 5.373 0 12s5.373 12 12 12Zm5.06-13.44-5.5 5.5a1.5 1.5 0 0 1-2.12 0l-2-2a1.5 1.5 0 0 1 2.12-2.12l.94.939 4.44-4.44a1.5 1.5 0 0 1 2.12 2.122Z"/></svg>
